build/assets/img/stage-design/image-element-6.svg

<svg width="58" height="74" viewBox="0 0 58 74" fill="none" xmlns="http://www.w3.org/2000/svg">
<path d="M17.3361 44.8525C17.3361 38.3378 22.6526 33.0683 29.1745 33.1634C35.4707 33.2556 40.5966 38.4148 40.6639 44.7251C40.6923 47.4263 39.8075 49.9185 38.2987 51.9107C36.1705 54.7232 34.8599 58.0584 34.5896 61.5543C34.5545 62.001 34.5374 62.4506 34.5374 62.9021V65.6671H23.4624V63.0647C23.4624 62.5599 23.4425 62.0562 23.4018 61.5543C23.1239 58.0908 21.89 54.7527 19.762 51.9896C18.2409 50.0155 17.3361 47.5395 17.3361 44.8525Z" fill="#FFD042"/>
<path d="M23.402 61.5543H34.5898C34.5547 62.001 34.5377 62.4506 34.5377 62.9021V65.6671H23.4627V63.0647C23.4627 62.5599 23.4428 62.0562 23.402 61.5543Z" fill="#FFB952"/>
<path d="M17.3363 44.8525C17.3363 39.8815 20.4317 35.6356 24.797 33.9448C21.197 35.9341 18.7588 39.775 18.7588 44.1872C18.7588 46.8742 19.6636 49.3502 21.1847 51.3244C23.6211 54.4875 24.8853 58.4026 24.8853 62.3994V65.6671H23.4627V63.0647C23.4627 59.0679 22.1986 55.1528 19.7621 51.9897C18.241 50.0155 17.3363 47.5395 17.3363 44.8525Z" fill="#FFB952"/>
<path d="M31.7213 51.129C32.1236 51.129 32.4497 51.4558 32.4497 51.859V65.667C32.4497 66.0702 32.1236 66.3971 31.7213 66.3971C31.319 66.3971 30.9928 66.0703 30.9928 65.667V51.859C30.9929 51.4559 31.319 51.129 31.7213 51.129Z" fill="#FFB952"/>
<path d="M26.3156 51.129C26.7179 51.129 27.0439 51.4558 27.0439 51.859L27.0439 65.667C27.0439 66.0702 26.7179 66.3971 26.3156 66.3971C25.9132 66.3971 25.5871 66.0703 25.5871 65.667V51.859C25.5872 51.4559 25.9132 51.129 26.3156 51.129Z" fill="#FFB952"/>
<path d="M26.3158 53.8483C26.5021 53.8483 26.6886 53.9196 26.831 54.0621C27.518 54.751 28.4529 54.0781 28.5574 53.999C28.8472 53.7792 29.2584 53.8044 29.5156 54.0622C30.1674 54.7155 31.2713 54.001 31.3181 53.9704C31.653 53.7499 32.1047 53.8409 32.3264 54.1755C32.5483 54.5102 32.4602 54.9604 32.1276 55.1845C31.4844 55.6174 30.0974 56.1447 28.9568 55.4645C28.1342 55.8875 26.845 56.1412 25.8008 55.0948C25.5164 54.8096 25.5164 54.3474 25.8008 54.0622C25.9429 53.9196 26.1295 53.8483 26.3158 53.8483Z" fill="#FFB952"/>
<path d="M23.1944 62.9801H34.8422C35.3989 62.9801 35.8057 63.5066 35.6663 64.0465L35.3771 65.1661L33.6605 71.8138L33.2612 73.3602C33.1645 73.7367 32.8259 74 32.438 74H25.5993C25.2114 74 24.8728 73.7367 24.7752 73.3603L24.3759 71.8139L22.6604 65.1662L22.3711 64.0466C22.2317 63.5066 22.6386 62.9801 23.1944 62.9801Z" fill="#71A0DD"/>
<path d="M22.6604 65.1662H35.377L33.6604 71.8138H24.3759L22.6604 65.1662Z" fill="#0A3D76"/>
<path d="M22.5562 66.592H35.4802C35.9922 66.592 36.4072 67.0079 36.4072 67.521V69.4592C36.4072 69.9723 35.9923 70.3883 35.4802 70.3883H22.5561C22.0441 70.3883 21.6291 69.9724 21.6291 69.4592V67.521C21.6292 67.008 22.0441 66.592 22.5562 66.592Z" fill="#B4D1FA"/>
<path d="M31.7203 36.7712C31.7867 36.7712 31.8541 36.7803 31.9212 36.7996C36.6129 38.1457 37.4856 42.8784 37.5203 43.0792C37.5893 43.4765 37.3239 43.8544 36.9276 43.9236C36.5319 43.9933 36.1551 43.7274 36.0854 43.3311C36.0549 43.1619 35.3175 39.2929 31.5201 38.2034C31.1334 38.0924 30.9095 37.6882 31.0204 37.3006C31.1119 36.9801 31.4035 36.7712 31.7203 36.7712Z" fill="#FCE581"/>
<path d="M24.7046 31.5871L22.6364 27.7604M15.3182 53.7502L7.36366 57.2581M13.7273 46.5751C11.5 46.5751 7.04547 46.7877 1 46.5751M13.7273 40.1972L4.50001 36.6894M17.2273 34.6166L12.2955 30.3115" stroke="#FCE581" stroke-width="2" stroke-linecap="round"/>
<path d="M33.2954 31.5871L35.3636 27.7604M42.6818 53.7503L50.6363 57.2581M44.2727 46.5751C46.5 46.5751 50.9545 46.7877 57 46.5751M44.2727 40.1973L53.5 36.6894M40.7727 34.6166L45.7045 30.3116" stroke="#FCE581" stroke-width="2" stroke-linecap="round"/>
<path d="M5.06303 4.60649C4.92353 5.19606 4.83476 5.66578 4.79671 6.01564C4.79671 6.20353 4.7333 6.68621 4.60648 7.46367C4.39723 8.85015 4.29261 9.79607 4.29261 10.3014C4.29261 11.1566 4.34333 11.9989 4.44479 12.8282C4.52088 13.4307 4.4004 13.8713 4.08336 14.1499C3.76631 14.422 3.44927 14.5581 3.13222 14.5581C2.68202 14.5581 2.3618 14.3604 2.17157 13.9652C1.98134 13.5635 1.88623 12.8703 1.88623 11.8855C1.88623 11.2765 2.03524 9.82523 2.33326 7.5317L2.85639 3.73184C2.96419 3.17465 3.04345 2.65634 3.09417 2.1769C3.17027 1.47071 3.26221 1.03662 3.37 0.874649C3.48414 0.706198 3.68388 0.531268 3.96922 0.34986C4.25456 0.161972 4.47015 0.0680283 4.61599 0.0680283C4.98377 0.0680283 5.26277 0.220282 5.453 0.52479C5.64956 0.829297 5.74785 1.20183 5.74785 1.6424L5.06303 4.60649Z" fill="black"/>
<path d="M10.2734 12.6824C10.3431 12.3649 10.397 11.7948 10.4351 10.972C10.5809 8.71734 10.8536 6.35902 11.253 3.89705C11.3545 3.37874 11.4052 2.98353 11.4052 2.71141C11.4052 2.59479 11.3545 2.52352 11.253 2.49761C10.5809 2.32268 10.2448 2.02141 10.2448 1.59381C10.2448 1.28282 10.3812 0.991269 10.6538 0.719156C10.9328 0.440564 11.2277 0.301268 11.5384 0.301268L12.8224 0.340141C13.4058 0.340141 14.2079 0.298029 15.2288 0.213803C16.0975 0.136057 16.8045 0.0971832 17.3498 0.0971832C19.1189 0.0971832 20.5488 0.605776 21.6394 1.62296C22.7364 2.63367 23.2849 3.97479 23.2849 5.64635C23.2849 7.51226 22.4416 9.20001 20.7549 10.7096C19.0682 12.2127 17.0264 13.2396 14.6296 13.7903C13.9955 13.9328 13.5484 14.0559 13.2885 14.1596C13.0285 14.2633 12.7241 14.4285 12.3754 14.6552C11.9442 14.9597 11.5193 15.112 11.1008 15.112C10.7775 15.112 10.4889 14.9533 10.2353 14.6358C9.98168 14.3183 9.85486 14.0592 9.85486 13.8583C9.85486 13.7223 9.92144 13.5247 10.0546 13.2655L10.2734 12.6824ZM12.7558 12.1965C13.0919 12.1965 14.0525 11.9471 15.6378 11.4482C17.2293 10.9428 18.5197 10.1686 19.5089 9.12551C20.4981 8.08241 20.9927 6.89353 20.9927 5.55888C20.9927 4.48987 20.6249 3.64113 19.8894 3.01268C19.1602 2.37775 18.2027 2.06028 17.0169 2.06028C16.2053 2.06028 15.2288 2.13803 14.0874 2.29352C13.9416 2.31296 13.8243 2.32592 13.7355 2.3324C13.0443 6.66029 12.6988 9.71509 12.6988 11.4968C12.6988 11.8272 12.7178 12.0604 12.7558 12.1965Z" fill="black"/>
<path d="M38.0066 2.19634L35.0771 2.35183C34.0562 2.41014 33.178 2.50409 32.4425 2.63367C31.7069 2.75676 31.3074 2.85395 31.244 2.92522C31.187 2.99 31.1457 3.18761 31.1204 3.51803C31.0887 3.84198 30.9745 4.41212 30.778 5.22846C30.6195 5.85043 30.5243 6.35902 30.4926 6.75424C30.8985 6.75424 31.4818 6.71212 32.2427 6.6279C33.0036 6.54367 33.5426 6.46269 33.8597 6.38494C34.7728 6.15818 35.4798 6.0448 35.9807 6.0448C36.9826 6.0448 37.4835 6.34931 37.4835 6.95832C37.4835 7.40536 37.344 7.71635 37.065 7.89128C36.786 8.05973 36.3485 8.17635 35.7524 8.24114C35.3846 8.28001 34.9725 8.33832 34.5159 8.41607C34.275 8.45494 33.9738 8.49382 33.6124 8.53269C31.8559 8.74001 30.8192 8.90199 30.5021 9.01861H30.4926C30.3848 9.051 30.3024 9.12551 30.2453 9.24213C30.1946 9.35875 30.0995 9.84142 29.96 10.6902C29.8205 11.5324 29.7507 12.122 29.7507 12.4589C29.7825 12.6986 29.9283 12.8185 30.1883 12.8185C30.4926 12.8185 31.2916 12.7342 32.5851 12.5658C33.885 12.3909 34.6903 12.271 35.001 12.2062C35.8697 12.0183 36.4372 11.9244 36.7036 11.9244C37.5089 12.041 37.9115 12.4233 37.9115 13.0711C37.9115 13.3692 37.8164 13.5959 37.6262 13.7514C36.9921 14.043 36.1139 14.2244 34.9915 14.2957C34.1228 14.3475 33.0702 14.4576 31.8337 14.6261C30.7304 14.8658 29.6905 14.9857 28.714 14.9857C28.2004 14.9857 27.8294 14.8723 27.6012 14.6455C27.3729 14.4252 27.2366 14.0786 27.1922 13.6057L27.1637 13.2849C27.1573 13.2331 27.2112 13.0355 27.3253 12.6921C27.579 11.8952 27.8897 10.1233 28.2575 7.37621C28.6252 4.62916 28.8091 3.10015 28.8091 2.78916C28.8091 2.78268 28.7901 2.75676 28.7521 2.71141C28.7077 2.67254 28.6316 2.54944 28.5238 2.34212C28.4223 2.12831 28.3716 1.91127 28.3716 1.69099C28.3716 1.57437 28.3843 1.48042 28.4096 1.40916C28.435 1.2731 28.5713 1.13704 28.8186 1.00099C29.0659 0.864931 29.2974 0.796903 29.513 0.796903C29.811 0.796903 30.1122 0.816339 30.4165 0.855213C30.9428 0.855213 32.6549 0.660846 35.5527 0.272113C36.5165 0.142535 37.0206 0.0777466 37.065 0.0777466L37.1982 0.0680283C38.3395 -0.0161972 38.9102 0.359578 38.9102 1.19535C38.9102 1.35085 38.8056 1.54521 38.5963 1.77845C38.3934 2.00521 38.1968 2.14451 38.0066 2.19634Z" fill="black"/>
<path d="M44.929 11.108C44.8212 11.3802 44.4883 11.9827 43.9303 12.9157C43.3786 13.8421 42.995 14.3572 42.7794 14.4609C42.5638 14.571 42.3736 14.6261 42.2087 14.6261C41.9805 14.6261 41.7046 14.4997 41.3813 14.2471C41.0642 13.9879 40.9057 13.7223 40.9057 13.4502C40.9057 13.1975 41.7015 11.8337 43.293 9.35875C44.1617 8.00466 44.9544 6.66353 45.6709 5.33536C47.1103 2.6531 47.9885 1.09493 48.3055 0.660846C48.6289 0.220282 48.9586 0 49.2947 0C49.8337 0 50.2237 0.142535 50.4646 0.427606C50.5851 0.518311 50.6453 0.735353 50.6453 1.07873C50.6453 1.33141 50.6231 1.5355 50.5788 1.69099C51.7391 5.30621 52.6459 7.86536 53.299 9.36846C53.9585 10.8651 54.6179 11.9503 55.2774 12.6241C55.6071 12.961 55.8068 13.1878 55.8766 13.3044C55.9527 13.421 55.9907 13.5765 55.9907 13.7709C55.9907 14.1272 55.8639 14.4252 55.6103 14.665C55.3566 14.9111 55.0554 15.0342 54.7067 15.0342C54.2248 15.0342 53.7334 14.7492 53.2324 14.179C52.7378 13.6089 52.2686 12.8249 51.8247 11.8272C51.3872 10.8295 51.1685 10.269 51.1685 10.1459C51.1685 10.12 51.1526 10.1071 51.1209 10.1071C50.7785 10.1071 50.0144 10.2302 48.8287 10.4764C47.6492 10.7226 46.7013 10.9623 45.9848 11.1955C45.8009 11.2538 45.6392 11.283 45.4997 11.283C45.2524 11.283 45.0622 11.2247 44.929 11.108ZM50.4075 8.13424C50.2554 7.75198 49.8052 6.39142 49.0569 4.05254C48.9872 3.83874 48.9396 3.70268 48.9143 3.64437L46.213 8.89227C46.6125 8.821 47.0215 8.75621 47.44 8.6979C47.719 8.66551 48.4292 8.52945 49.5705 8.28973C49.8495 8.23142 50.1285 8.17959 50.4075 8.13424Z" fill="black"/>
</svg>

<svg width="58" height="74" fill="none" xmlns="http://www.w3.org/2000/svg"><path d="M17.336 44.852c0-6.514 5.317-11.784 11.838-11.689 6.297.093 11.423 5.252 11.49 11.562a11.654 11.654 0 01-2.365 7.186c-2.129 2.812-3.44 6.147-3.71 9.643-.035.447-.052.897-.052 1.348v2.765H23.462v-2.602c0-.505-.02-1.009-.06-1.51-.278-3.464-1.512-6.802-3.64-9.565a11.654 11.654 0 01-2.426-7.138z" fill="#FFD042"/><path d="M23.402 61.554H34.59c-.035.447-.052.897-.052 1.348v2.765H23.463v-2.602c0-.505-.02-1.009-.061-1.51z" fill="#FFB952"/><path d="M17.336 44.852c0-4.97 3.096-9.216 7.461-10.907a11.688 11.688 0 00-6.038 10.242c0 2.687.905 5.163 2.426 7.137 2.436 3.163 3.7 7.079 3.7 11.075v3.268h-1.422v-2.602c0-3.997-1.264-7.912-3.7-11.075a11.654 11.654 0 01-2.427-7.138zm14.385 6.277a.73.73 0 01.729.73v13.808a.73.73 0 11-1.457 0V51.859a.73.73 0 01.728-.73zm-5.405 0a.73.73 0 01.728.73v13.808a.73.73 0 11-1.457 0V51.859a.73.73 0 01.729-.73z" fill="#FFB952"/><path d="M26.316 53.848c.186 0 .373.072.515.214.687.689 1.622.016 1.726-.063a.732.732 0 01.959.063c.651.654 1.755-.061 1.802-.092a.73.73 0 01.81 1.215c-.644.432-2.03.96-3.171.28-.823.422-2.112.676-3.156-.37a.732.732 0 01.515-1.247z" fill="#FFB952"/><path d="M23.194 62.98h11.648c.557 0 .964.527.824 1.066l-.289 1.12-1.717 6.648-.399 1.546a.85.85 0 01-.823.64h-6.839a.852.852 0 01-.824-.64l-.4-1.546-1.715-6.648-.289-1.12a.852.852 0 01.823-1.066z" fill="#71A0DD"/><path d="M22.66 65.166h12.717l-1.717 6.648h-9.284l-1.716-6.648z" fill="#0A3D76"/><path d="M22.556 66.592H35.48c.512 0 .927.416.927.929v1.938c0 .513-.415.93-.927.93H22.556a.928.928 0 01-.927-.93v-1.938c0-.513.415-.929.927-.929z" fill="#B4D1FA"/><path d="M31.72 36.771c.067 0 .134.01.201.029 4.692 1.346 5.565 6.078 5.6 6.28a.728.728 0 11-1.435.252c-.031-.17-.768-4.04-4.566-5.129a.73.73 0 01.2-1.432z" fill="#FCE581"/><path d="M24.705 31.587l-2.069-3.827m-7.318 25.99l-7.954 3.508m6.363-10.683c-2.227 0-6.682.213-12.727 0m12.727-6.378L4.5 36.69m12.727-2.072l-4.931-4.305m20.999 1.274l2.069-3.827m7.318 25.99l7.954 3.508m-6.363-10.683c2.227 0 6.681.213 12.727 0m-12.727-6.378L53.5 36.69m-12.727-2.072l4.931-4.305" stroke="#FCE581" stroke-width="2" stroke-linecap="round"/><path d="M5.063 4.606c-.14.59-.228 1.06-.266 1.41 0 .188-.064.67-.19 1.448-.21 1.386-.314 2.332-.314 2.837 0 .856.05 1.698.152 2.527.076.603-.045 1.043-.362 1.322-.317.272-.634.408-.95.408-.451 0-.771-.198-.961-.593-.19-.402-.286-1.095-.286-2.08 0-.608.15-2.06.447-4.353l.523-3.8c.108-.557.187-1.076.238-1.555.076-.706.168-1.14.276-1.302.114-.169.314-.344.6-.525.285-.188.5-.282.646-.282.368 0 .647.152.837.457.197.304.295.677.295 1.117l-.685 2.964zm5.21 8.076c.07-.317.124-.887.162-1.71.146-2.255.419-4.613.818-7.075.101-.518.152-.913.152-1.186 0-.116-.05-.187-.152-.213-.672-.175-1.008-.477-1.008-.904 0-.311.136-.603.409-.875.279-.278.574-.418.884-.418l1.284.04c.584 0 1.386-.043 2.407-.127a24.797 24.797 0 012.12-.117c1.77 0 3.2.509 4.29 1.526 1.097 1.01 1.646 2.352 1.646 4.023 0 1.866-.843 3.554-2.53 5.064-1.687 1.503-3.729 2.53-6.125 3.08-.635.143-1.082.266-1.341.37-.26.103-.565.268-.914.495-.43.305-.856.457-1.274.457-.324 0-.612-.159-.866-.476-.253-.318-.38-.577-.38-.778 0-.136.066-.333.2-.593l.218-.583zm2.483-.486c.336 0 1.296-.249 2.882-.748 1.591-.505 2.882-1.28 3.87-2.322.99-1.044 1.485-2.232 1.485-3.567 0-1.07-.368-1.918-1.104-2.546-.729-.635-1.686-.953-2.872-.953-.812 0-1.788.078-2.93.234a6.028 6.028 0 01-.351.038c-.692 4.328-1.037 7.383-1.037 9.165 0 .33.019.563.057.7zm25.251-10l-2.93.156c-1.02.058-1.899.152-2.634.282-.736.123-1.136.22-1.199.291-.057.065-.098.263-.124.593-.031.324-.146.894-.342 1.71-.159.622-.254 1.131-.285 1.526.405 0 .989-.042 1.75-.126.76-.084 1.3-.165 1.617-.243.913-.227 1.62-.34 2.12-.34 1.003 0 1.504.304 1.504.913 0 .447-.14.758-.419.933-.279.169-.716.285-1.313.35-.367.039-.78.097-1.236.175-.241.039-.542.078-.904.117-1.756.207-2.793.369-3.11.486h-.01a.401.401 0 00-.247.223c-.05.117-.146.6-.285 1.448-.14.842-.21 1.432-.21 1.769.032.24.178.36.438.36.305 0 1.104-.085 2.397-.253 1.3-.175 2.105-.295 2.416-.36.869-.188 1.436-.282 1.703-.282.805.117 1.207.5 1.207 1.147 0 .298-.095.525-.285.68-.634.292-1.512.473-2.634.545-.87.052-1.922.162-3.158.33a14.71 14.71 0 01-3.12.36c-.514 0-.885-.114-1.113-.34-.228-.22-.364-.567-.409-1.04l-.028-.321c-.007-.052.047-.25.161-.593.254-.797.565-2.569.933-5.316.367-2.747.551-4.276.551-4.587a.335.335 0 00-.057-.078c-.044-.038-.12-.162-.228-.369a1.504 1.504 0 01-.152-.651c0-.117.012-.21.038-.282.025-.136.161-.272.409-.408.247-.136.478-.204.694-.204.298 0 .6.02.903.058.527 0 2.239-.194 5.137-.583.964-.13 1.468-.194 1.512-.194l.133-.01C38.34-.016 38.91.36 38.91 1.195c0 .156-.104.35-.314.583-.203.227-.4.367-.59.418zm6.922 8.912c-.108.272-.44.875-.999 1.808-.551.926-.935 1.441-1.15 1.545-.216.11-.406.165-.571.165-.229 0-.504-.126-.828-.379-.317-.26-.475-.525-.475-.797 0-.252.796-1.616 2.387-4.091a61.792 61.792 0 002.378-4.024c1.44-2.682 2.318-4.24 2.635-4.674.323-.44.653-.661.989-.661.539 0 .929.143 1.17.428.12.09.18.307.18.65a2.3 2.3 0 01-.066.613c1.16 3.615 2.067 6.174 2.72 7.677.66 1.497 1.319 2.582 1.978 3.256.33.337.53.564.6.68a.843.843 0 01.114.467c0 .356-.127.654-.38.894-.254.246-.556.37-.904.37-.482 0-.974-.286-1.475-.856-.494-.57-.963-1.354-1.407-2.352-.438-.998-.657-1.558-.657-1.681 0-.026-.015-.039-.047-.039-.343 0-1.107.123-2.292.37-1.18.246-2.128.485-2.844.718a1.635 1.635 0 01-.485.088c-.248 0-.438-.058-.571-.175zm5.478-2.974c-.152-.382-.602-1.743-1.35-4.081a6.132 6.132 0 00-.143-.409l-2.701 5.248c.4-.071.809-.136 1.227-.194.279-.032.99-.169 2.13-.408.28-.059.559-.11.837-.156z" fill="#000"/></svg>
